ix/profile-2user_linear.svg

<svg viewBox="0 0 24 24" fill="none" xmlns="http://www.w3.org/2000/svg" height="1em" width="1em">
  <path d="M9.16006 10.87C9.06006 10.86 8.94006 10.86 8.83006 10.87C6.45006 10.79 4.56006 8.84 4.56006 6.44C4.56006 3.99 6.54006 2 9.00006 2C11.4501 2 13.4401 3.99 13.4401 6.44C13.4301 8.84 11.5401 10.79 9.16006 10.87Z" stroke="#292D32" stroke-width="1.5" stroke-linecap="round" stroke-linejoin="round"/>
  <path d="M16.41 4C18.35 4 19.91 5.57 19.91 7.5C19.91 9.39 18.41 10.93 16.54 11C16.46 10.99 16.37 10.99 16.28 11" stroke="#292D32" stroke-width="1.5" stroke-linecap="round" stroke-linejoin="round"/>
  <path d="M4.15997 14.56C1.73997 16.18 1.73997 18.82 4.15997 20.43C6.90997 22.27 11.42 22.27 14.17 20.43C16.59 18.81 16.59 16.17 14.17 14.56C11.43 12.73 6.91997 12.73 4.15997 14.56Z" stroke="#292D32" stroke-width="1.5" stroke-linecap="round" stroke-linejoin="round"/>
  <path d="M18.3401 20C19.0601 19.85 19.7401 19.56 20.3001 19.13C21.8601 17.96 21.8601 16.03 20.3001 14.86C19.7501 14.44 19.0801 14.16 18.3701 14" stroke="#292D32" stroke-width="1.5" stroke-linecap="round" stroke-linejoin="round"/>
</svg>

<svg viewBox="0 0 24 24" fill="none" xmlns="http://www.w3.org/2000/svg" height="1em" width="1em">
  <path d="M9.16 10.87c-.1-.01-.22-.01-.33 0a4.42 4.42 0 0 1-4.27-4.43C4.56 3.99 6.54 2 9 2a4.435 4.435 0 0 1 .16 8.87ZM16.41 4c1.94 0 3.5 1.57 3.5 3.5 0 1.89-1.5 3.43-3.37 3.5a1.13 1.13 0 0 0-.26 0M4.16 14.56c-2.42 1.62-2.42 4.26 0 5.87 2.75 1.84 7.26 1.84 10.01 0 2.42-1.62 2.42-4.26 0-5.87-2.74-1.83-7.25-1.83-10.01 0ZM18.34 20c.72-.15 1.4-.44 1.96-.87 1.56-1.17 1.56-3.1 0-4.27-.55-.42-1.22-.7-1.93-.86" stroke="#292D32" stroke-width="1.5" stroke-linecap="round" stroke-linejoin="round"/>
</svg>
